src/lib/packages/icons/src/assets/line/hospital-h-sign-square.svg

<svg xmlns="http://www.w3.org/2000/svg" width="24" height="24" fill="none"><path fill="currentColor" d="M17.625 2.25H6.375c-2.66 0-4.125 1.465-4.125 4.125v11.25c0 2.66 1.465 4.125 4.125 4.125h11.25c2.66 0 4.125-1.465 4.125-4.125V6.375c0-2.66-1.465-4.125-4.125-4.125Zm2.625 15.375c0 1.84-.785 2.625-2.625 2.625H6.375c-1.84 0-2.625-.785-2.625-2.625V6.375c0-1.84.785-2.625 2.625-2.625h11.25c1.84 0 2.625.785 2.625 2.625v11.25ZM15.75 8v8a.75.75 0 0 1-1.5 0v-3.25h-4.5V16a.75.75 0 0 1-1.5 0V8a.75.75 0 0 1 1.5 0v3.25h4.5V8a.75.75 0 0 1 1.5 0Z"/></svg>

<svg width="24" height="24" viewBox="0 0 24 24" fill="none" xmlns="http://www.w3.org/2000/svg">
<path d="M17.625 2.25H6.375C3.715 2.25 2.25 3.715 2.25 6.375V17.625C2.25 20.285 3.715 21.75 6.375 21.75H17.625C20.285 21.75 21.75 20.285 21.75 17.625V6.375C21.75 3.715 20.285 2.25 17.625 2.25ZM20.25 17.625C20.25 19.465 19.465 20.25 17.625 20.25H6.375C4.535 20.25 3.75 19.465 3.75 17.625V6.375C3.75 4.535 4.535 3.75 6.375 3.75H17.625C19.465 3.75 20.25 4.535 20.25 6.375V17.625ZM15.75 8V16C15.75 16.414 15.414 16.75 15 16.75C14.586 16.75 14.25 16.414 14.25 16V12.75H9.75V16C9.75 16.414 9.414 16.75 9 16.75C8.586 16.75 8.25 16.414 8.25 16V8C8.25 7.586 8.586 7.25 9 7.25C9.414 7.25 9.75 7.586 9.75 8V11.25H14.25V8C14.25 7.586 14.586 7.25 15 7.25C15.414 7.25 15.75 7.586 15.75 8Z" fill="currentColor"/>
</svg>
